X:1005
T:Away in a Manger
R:Waltz
C:William J Kirkpatrick, 1895
O:England
Z:Paul Hardy's Xmas Tunebook 2019 (see www.paulhardy.net). Creative Commons cc by-nc-sa licenced.
M:3/4
L:1/4
Q:1/4=110
K:G
D|"G"GG "D7"A/B/|"G"GG B/c/|dd "Em"e|"Am"c2A/B/|"D"ccd|"G"BB G/B/|"A7"AEG|"D7"F2D|
"G"GG "D7"A/B/|"G"GG B/c/|dd "Em"e|"Am"c2A/B/|"D"ccd|"G"BB G/B/|"Am"AE "D7"F|"G"G2|]
W:Away in a manger, No crib for His bed
W:The little Lord Jesus, Laid down His sweet head
W:The stars in the bright sky, Looked down where He lay
W:The little Lord Jesus, Asleep on the hay
% --------------------------------- B ---------------------------------------

